src/resources/assets/previous.svg

<svg xmlns="http://www.w3.org/2000/svg" width="16" height="16"><path d="M 12.421875 13.851562 C 13.085938 14.320312 14 13.847656 14 13.035156 L 14 2.964844 C 14 2.15625 13.085938 1.679688 12.421875 2.148438 L 5.289062 7.183594 C 4.726562 7.582031 4.726562 8.417969 5.289062 8.816406 Z M 13 13.035156 L 5.867188 8 L 13 2.964844 Z M 2 13.5 C 2 13.777344 2.222656 14 2.5 14 C 2.777344 14 3 13.777344 3 13.5 L 3 2.5 C 3 2.222656 2.777344 2 2.5 2 C 2.222656 2 2 2.222656 2 2.5 Z M 2 13.5" fill="#ddd"/></svg>

<svg xmlns="http://www.w3.org/2000/svg" width="16" height="16"><path d="M12.422 13.852A1 1 0 0014 13.035V2.965a1 1 0 00-1.578-.817L5.289 7.184a1 1 0 000 1.632zm.578-.817L5.867 8 13 2.965zM2 13.5c0 .277.223.5.5.5s.5-.223.5-.5v-11c0-.277-.223-.5-.5-.5s-.5.223-.5.5zm0 0" fill="#ddd"/></svg>
